!!!OTL-incipit: Schon wieder toent's vom Schacht zurueck des Gloeckleins leises Hallen
!!!ARE: Europa, Mitteleuropa, Deutschland, Baden, Freiburg i. Brsg.
!!!SCT: D0094
!!!TXL: @@DE
!!!YEM: Copyright 1995, estate of Helmut Schaffrath.
**kern	**text
*ICvox	*
*M2/4	*
*k[f#]	*
*G:	*
=1	=1
{4d	Schon
8.BL	wie-
16cJ	-der
=2	=2
4d	tönt's
4d	vom
=3	=3
4e	Schacht
4f#	zu-
=4	=4
4g	-rück
8r}	.
{8g	des
=5	=5
8f#L	Glöck-
8aJ	-leins
8gL	lei-
8eJ	-ses
=6	=6
8eL	Hal-
8dJ	-len,
4r}	.
=7	=7
{4d	ein
8.BL	je-
16cJ	-der
=8	=8
4d	eilt
4d	zur
=9	=9
4e	Ar-
4f#	-beit
=10	=10
4g	hin,
8r}	.
{8g	zur
=11	=11
8f#L	Ar-
8aJ	-beit
8gL	laßt
8eJ	uns
=12	=12
8eL	wal-
8dJ	-len.
4r	.
=13	=13
4r}	.
{4d	Drum
=14	=14
4.a	Lieb-
8g	-chen,
=15	=15
(8f#L	gib
8aJ)	.
4d	mir
=16	=16
4.dd	ei-
8cc	-nen
=17	=17
4b}	Kuß,
{4d	ver-
=18	=18
4.cc	-säu-
8b	-me
=19	=19
8a	nicht
8a	.
4d	den
=20	=20
4.ee	Hoch-
8cc	-ge-
=21	=21
2b	-nuß.
=22	=22
4r}	.
{4g	Das
=23	=23
4.g	ist
8g	des
=24	=24
4a	Berg-
4b	-manns
=25	=25
2cc	Lauf,
=26	=26
4r}	.
{8bL	Glück
8aJ	.
=27	=27
2dd	auf,
=28	=28
(4dd	Glück
4cc)	.
=29	=29
2b	auf!
=30	=30
4r}	.
{4d	Drum
=31	=31
4.a	Lieb-
8g	-chen,
=32	=32
(8f#L	gib
8aJ)	.
4d	mir
=33	=33
4.dd	ei-
8cc	-nen
=34	=34
4b}	Kuß,
{4d	ver-
=35	=35
4.cc	-säu-
8b	-me
=36	=36
8a	nicht
8a	.
4d	den
=37	=37
4.ee	Hoch-
8cc	-ge-
=38	=38
2b	-nuß.
=39	=39
4r}	.
{4g	Das
=40	=40
4.g	ist
8g	des
=41	=41
4a	Berg-
4b	-manns
=42	=42
2cc	Lauf,
=43	=43
4r}	.
{8bL	Glück
8aJ	.
=44	=44
2dd	auf,
=45	=45
(4dd	Glück
4cc)	.
=46	=46
2b	auf!
=47	=47
4r}	.
==	==
!!!AGN: Arbeit, Staende - Lied, Bergmannslied
!! erste, dritte und fuenfte Zeile rhythmisch korrigiert; Zweiter Teil
!!    des Liedes mehrstimmig; Inzipit = Variante zum Lied
!!!ONB: ESAC (Essen Associative Code) Database: DVA
!!!AMT: simple duple
!!!AIN: vox
!!!EED: Helmut Schaffrath
!!!EEV: 1.0
!!!YOR: https://freidok.uni-freiburg.de/data/150373
!!!EFL: A218586
!!!ENC: Anna Maria Matuszewska
!!!EEV: 2025/06/04
*-	*-
